svg/checkMarkEmpty.svg

<svg width="284" height="284" viewBox="0 0 284 284" xmlns="http://www.w3.org/2000/svg">
    <path d="M141.531 44C87.752 44 44 87.752 44 141.531s43.752 97.531 97.531 97.531c16.935 0 32.873-4.342 46.766-11.965-.851-1.427-1.705-2.859-2.559-4.296-13.143 7.177-28.206 11.261-44.207 11.261-51.022 0-92.531-41.509-92.531-92.531C49 90.509 90.509 49 141.531 49c51.022 0 92.531 41.509 92.531 92.531 0 35.022-19.558 65.56-48.324 81.27.854 1.437 1.708 2.869 2.559 4.296 30.227-16.587 50.765-48.722 50.765-85.566C239.062 87.752 195.31 44 141.531 44z" fill="#1A1918" fill-rule="evenodd"/>
</svg>

<svg width="284" height="284" viewBox="0 0 284 284" fill="none" xmlns="http://www.w3.org/2000/svg">
<path fill-rule="evenodd" clip-rule="evenodd" d="M141.531 44C87.752 44 44 87.752 44 141.531C44 195.31 87.752 239.062 141.531 239.062C158.466 239.062 174.404 234.72 188.297 227.097C187.446 225.67 186.592 224.238 185.738 222.801C172.595 229.978 157.532 234.062 141.531 234.062C90.509 234.062 49 192.553 49 141.531C49 90.509 90.509 49 141.531 49C192.553 49 234.062 90.509 234.062 141.531C234.062 176.553 214.504 207.091 185.738 222.801C186.592 224.238 187.446 225.67 188.297 227.097C218.524 210.51 239.062 178.375 239.062 141.531C239.062 87.752 195.31 44 141.531 44Z" fill="#1A1919"/>
</svg>
